dist/svg/adjoining-room-fill.svg

<svg xmlns="http://www.w3.org/2000/svg" viewBox="0 0 24 24"><path d="M11.82 3.276a.73.73 0 0 0-.538.515c-.06.216-.057 16.212.003 16.428.059.213.293.441.513.5.4.108.812-.12.92-.51.058-.207.058-16.211 0-16.418a.8.8 0 0 0-.353-.448.95.95 0 0 0-.545-.067M3.664 6.063a1 1 0 0 0-.533.448L3.02 6.7l-.011 5.214c-.007 3.522.003 5.263.032 5.368.061.227.272.479.498.596l.199.102 2.698.011c3.052.012 2.954.021 3.264-.289.321-.321.3.082.3-5.702s.021-5.381-.299-5.701c-.308-.308-.213-.299-3.218-.296-2.207.002-2.69.012-2.819.06m11 0a1 1 0 0 0-.533.448l-.111.189-.011 5.214c-.007 3.522.003 5.263.032 5.368.061.227.272.479.498.596l.199.102 2.698.011c3.052.012 2.954.021 3.264-.289.321-.321.3.082.3-5.702s.021-5.381-.299-5.701c-.308-.308-.213-.299-3.218-.296-2.207.002-2.69.012-2.819.06m-6.487 5.215a.739.739 0 0 1 .348 1.246c-.181.182-.367.236-.805.235-.382-.001-.588-.071-.767-.264a.74.74 0 0 1-.139-.787c.067-.16.31-.379.457-.411.06-.013.127-.03.149-.037.086-.029.608-.016.757.018m11 0a.739.739 0 0 1 .348 1.246c-.181.182-.367.236-.805.235-.382-.001-.588-.071-.767-.264a.74.74 0 0 1-.139-.787c.067-.16.31-.379.457-.411.06-.013.127-.03.149-.037.086-.029.608-.016.757.018" fill-rule="evenodd"/></svg>

<svg fill="none" xmlns="http://www.w3.org/2000/svg" viewBox="0 0 24 24"><path d="M11.820 3.276 C 11.554 3.342,11.353 3.534,11.282 3.791 C 11.222 4.007,11.225 20.003,11.285 20.219 C 11.344 20.432,11.578 20.660,11.798 20.719 C 12.198 20.827,12.610 20.599,12.718 20.209 C 12.776 20.002,12.776 3.998,12.718 3.791 C 12.670 3.617,12.514 3.419,12.365 3.343 C 12.224 3.271,11.967 3.240,11.820 3.276 M3.664 6.063 C 3.436 6.146,3.257 6.297,3.131 6.511 L 3.020 6.700 3.009 11.914 C 3.002 15.436,3.012 17.177,3.041 17.282 C 3.102 17.509,3.313 17.761,3.539 17.878 L 3.738 17.980 6.436 17.991 C 9.488 18.003,9.390 18.012,9.700 17.702 C 10.021 17.381,10.000 17.784,10.000 12.000 C 10.000 6.217,10.021 6.619,9.701 6.299 C 9.393 5.991,9.488 6.000,6.483 6.003 C 4.276 6.005,3.793 6.015,3.664 6.063 M14.664 6.063 C 14.436 6.146,14.257 6.297,14.131 6.511 L 14.020 6.700 14.009 11.914 C 14.002 15.436,14.012 17.177,14.041 17.282 C 14.102 17.509,14.313 17.761,14.539 17.878 L 14.738 17.980 17.436 17.991 C 20.488 18.003,20.390 18.012,20.700 17.702 C 21.021 17.381,21.000 17.784,21.000 12.000 C 21.000 6.217,21.021 6.619,20.701 6.299 C 20.393 5.991,20.488 6.000,17.483 6.003 C 15.276 6.005,14.793 6.015,14.664 6.063 M8.177 11.278 C 8.742 11.409,8.938 12.111,8.525 12.524 C 8.344 12.706,8.158 12.760,7.720 12.759 C 7.338 12.758,7.132 12.688,6.953 12.495 C 6.759 12.288,6.703 11.973,6.814 11.708 C 6.881 11.548,7.124 11.329,7.271 11.297 C 7.331 11.284,7.398 11.267,7.420 11.260 C 7.506 11.231,8.028 11.244,8.177 11.278 M19.177 11.278 C 19.742 11.409,19.938 12.111,19.525 12.524 C 19.344 12.706,19.158 12.760,18.720 12.759 C 18.338 12.758,18.132 12.688,17.953 12.495 C 17.759 12.288,17.703 11.973,17.814 11.708 C 17.881 11.548,18.124 11.329,18.271 11.297 C 18.331 11.284,18.398 11.267,18.420 11.260 C 18.506 11.231,19.028 11.244,19.177 11.278 " stroke="none" fill-rule="evenodd" fill="currentColor"/></svg>
